img/location-form.svg

<svg width="19" height="28" viewBox="0 0 19 28" fill="none" xmlns="http://www.w3.org/2000/svg">
<path d="M17.6803 4.82791C16.0034 1.93397 13.0248 0.165944 9.71257 0.0983771C9.57118 0.0954628 9.42886 0.0954628 9.28742 0.0983771C5.97523 0.165944 2.99666 1.93397 1.31968 4.82791C-0.394425 7.78596 -0.441322 11.3392 1.19421 14.3328L8.04606 26.8741C8.04914 26.8796 8.05221 26.8852 8.0554 26.8907C8.35686 27.4147 8.89691 27.7275 9.5001 27.7275C10.1032 27.7275 10.6433 27.4146 10.9447 26.8907C10.9479 26.8852 10.951 26.8796 10.954 26.8741L17.8059 14.3328C19.4413 11.3392 19.3944 7.78596 17.6803 4.82791ZM9.49999 12.6166C7.35744 12.6166 5.61435 10.8735 5.61435 8.73098C5.61435 6.58843 7.35744 4.84534 9.49999 4.84534C11.6425 4.84534 13.3856 6.58843 13.3856 8.73098C13.3856 10.8735 11.6426 12.6166 9.49999 12.6166Z" fill="#162532"/>
</svg>

<svg width="19" height="28" fill="none" xmlns="http://www.w3.org/2000/svg"><path d="M17.68 4.828C16.003 1.934 13.025.166 9.713.098a10.338 10.338 0 0 0-.426 0c-3.312.068-6.29 1.836-7.967 4.73a9.62 9.62 0 0 0-.126 9.505l6.852 12.541.01.017a1.65 1.65 0 0 0 1.444.837 1.65 1.65 0 0 0 1.454-.854l6.852-12.541a9.62 9.62 0 0 0-.126-9.505ZM9.5 12.617A3.89 3.89 0 0 1 5.614 8.73 3.89 3.89 0 0 1 9.5 4.845a3.89 3.89 0 0 1 3.886 3.886A3.89 3.89 0 0 1 9.5 12.617Z" fill="#162532"/></svg>
